X: 2
T: Marie's Wedding
R: polka
M: 2/4
L: 1/8
K: Gmaj
D>E DE|GA B2|AG EG|BA B<d|D>E DE|GA B2|AG E/D/C|D2 D2:||d>e de|dc B2|AG EG|BA B<d|d>e de|dc B2|AG E/D/C|D2 D2:||


Tune 1797	Setting 1797

